X:715
T: Not Far to Meath (with piano acc.)
C: BB
L: 1/8
Q: 1/8=320
M: 6/8
R: jig
V: 1 program 1 110 %fiddle
V: 2 volume=70 clef=bass m=D program 1 01
K: Ador
[V:1] A/B/| "Am"cBA "G"GED | "Em"EGB "Am"AGE | "C"cBc "G"dcd | "Am"eae "G"ged |
[V:2] z|A,,2[ACE]G,,2[GBD]|E,2[EGB]A,,2[ACE]|C,2[EGC]G,,2[GBD]|A,,2[ACE]G,,2[GBD]|
%
[V:1] "Am"cBA "G"GED | "C"ECE "G"GAB | "Am"cea "G"ged | "Am"cAG "Am"A2 :|
[V:2] A,,2[ACE]G,,2[GBD]|C,2[EGC]G,,2[GBD]|A,,2[ACE]G,,2[GBD]|C,2[ACE][A,,2C2E,2]:|
%
[V:1] e|"Am"aec aec | "G"Bdg BAG | "Am"cAE cAE | "G"GAB "Em"edB |
[V:2] z|A,,2[ACE]E,,2[ACE]|G,,2[GBD]D,2[GBD]|A,,2[ACE]E,,2[ACE]|G,,2[GBD]E,2[EGB]|
%
[V:1] "Am"aec aec | "G"Bdg BAG | "Am"EAc ecA |"Em"BGE "Am"A2 :|
[V:2] A,,2[ACE]E,,2[ACE]|G,,2[GBD]D,2[GBD]|A,,2[ACE]E,,2[ACE]|E,2[EGB][A,,2C2E,2]:|

%%%%%%%%%%%%%%%%%%%%%%%%%%%%%%%%%%%%%%%%%%%

